!!!OTL: DIE DUNKELN SCHATTEN FLIEHEN
!!!ARE: Europa, Mitteleuropa, Deutschland
!!!SCT: F0339
!!!YEM: Copyright 1995, estate of Helmut Schaffrath.
**kern
*ICvox
*Ivox
!! Mixed meters:  4/4; 3/4
*M4/4
*k[f#c#g#]
*A:
{4e
=1
4a
4b
4cc#
4dd
=2
*M3/4
4ee
4cc#
4r}
=3
{4ee
=4
*M4/4
4ff#
4ee
4dd
4cc#
=5
*M3/4
2b
4r}
=6
{4e
=7
*M4/4
4a
4b
4cc#
4dd
=8
*M3/4
4ee
4cc#
4r}
=9
{4ee
=10
*M4/4
4ee
4dd
4cc#
4b
=11
2a
2r}
=12
*M3/4
{4a
4a
4a
=13
2dd
4dd
=14
4ee
4dd
4ee
=15
2ff#}
{4a
=16
4a
4ff#
4ff#
=17
4ee
4dd
4cc#
=18
4b
4cc#
4dd
=19
2cc#}
{4cc#
=20
2ee
4cc#
=21
4ee
4dd
4cc#
=22
4b
4cc#
4b
=23
2a
4r}
==
!!!AGN: Jugend - Lied, Tageszeiten, Morgen, religioes
!!!ONB: ESAC (Essen Associative Code) Database: FINK
!!!AMT: irregular
!!!AIN: vox
!!!EED: Helmut Schaffrath
!!!EEV: 1.0
*-
